X:5945
T:Stensele polska
A:Vsterbotten
L:1/16
M:3/4
O:Sweden
R:Polska
Z:Richard Robinson 
%%TUNEURL: http://www.leeds.ac.uk/music/Info/RRTuneBk/gettune/000007a9.html
%%ID:000007a9
K:G min
D2|\
D2B2 B2AB cBAG|F2A2 A2GA BAGF|\
E2EF G2GA B2AG|^FGAF G2D2 B,CB,A,|
G,2B2 B2AB cBAG|F2A2 A2GA BAGF|\
E2EF G2GA B2AG|^FGAF G6::
D2|\
D2d2 d2^cd e2d2|D2c2 c2Bc dcBA|\
G^FGA BABc d2d2|^c2Ac d6D2|
D2d2 d2^cd e2d2|D2c2 c2Bc dcBA|\
G^FGA BABc d^cde|d2^F2 G6:|
